frontend/public/svg/interface/mic.svg

<svg width="164" height="151" viewBox="0 0 164 151" fill="none" xmlns="http://www.w3.org/2000/svg">
<g clip-path="url(#clip0)">
<path d="M129.93 130.486C129.62 131.763 129.331 132.823 129.107 133.896C127.665 140.816 123.559 145.182 116.638 146.649C114.044 147.246 111.392 147.551 108.732 147.561C99.9647 147.424 91.2075 147.055 81.8516 146.756C76.9259 151.476 70.213 150.523 63.7085 150.124C62.2522 150.057 60.8267 149.682 59.5258 149.023C58.2248 148.364 57.0781 147.436 56.1611 146.3C55.2539 145.164 54.6229 143.832 54.3184 142.409C54.0137 140.986 54.0439 139.512 54.4062 138.103C54.7686 136.694 55.4533 135.389 56.4061 134.292C57.3589 133.194 58.5538 132.333 59.8958 131.778C65.9705 129.335 72.2755 129.521 78.5604 131.035C79.3293 131.182 80.0333 131.566 80.5736 132.134C82.0841 134.1 84.1252 134.096 86.2825 134.087C93.8409 134.058 101.399 134.108 108.957 134.103C110.179 134.131 111.401 134.057 112.61 133.881C116.754 133.174 117.918 131.71 118.338 127.448C120.646 104.017 119.37 80.5212 119.461 57.0587C119.48 52.3074 118.709 47.5378 118.127 42.7989C117.257 35.7175 113.846 29.7757 109.55 24.2493C103.467 16.4285 95.6748 11.3006 85.7701 10.3568C72.9678 9.1371 60.9563 11.3043 51.1705 20.6403C47.9312 23.7628 45.8413 27.8918 45.2408 32.3558C44.2602 38.8261 43.7023 45.364 43.0562 51.8817C42.3873 58.624 41.6398 65.3665 41.2762 72.1283C40.9248 78.663 41.0547 85.223 40.9028 91.7707C40.8274 94.9899 40.48 98.2045 40.4651 101.422C40.4527 104.081 40.9417 106.747 40.8657 109.401C40.732 114.058 40.5657 118.739 39.9754 123.352C39.5039 127.041 37.7986 128.678 34.2951 128.828C26.6802 129.153 19.1945 128.464 12.4687 124.294C6.51691 120.604 3.14652 115.268 2.12112 108.348C0.907385 100.154 0.383318 91.9855 2.76208 83.9044C4.51546 77.9457 7.80207 72.979 13.0077 69.5359C16.0284 67.4636 19.2392 65.6848 22.5968 64.2239C25.4048 63.0621 28.5518 62.7233 31.9118 61.9345C32.1754 59.6903 32.5151 57.0775 32.7852 54.4578C33.4801 47.7207 34.0581 40.9706 34.838 34.2433C36.3842 20.9201 43.6822 11.7139 55.5201 5.96158C64.786 1.48267 75.0809 -0.423309 85.3317 0.442282C95.1916 1.10551 104.54 5.08185 111.867 11.7288C122.406 21.1923 129.176 32.803 130.497 47.2008C130.75 49.9643 130.9 52.737 131.168 55.4986C131.28 56.6604 131.574 57.8038 131.826 59.1778C136.186 58.2616 140.713 58.5411 144.929 59.9863C153.251 62.6867 158.782 68.2459 161.335 76.6063C163.294 83.0264 164.296 89.5259 163.276 96.3404C162.121 104.045 160.14 111.375 155.722 117.851C150.275 125.841 142.683 130.03 132.993 130.315C132.117 130.342 131.242 130.412 129.93 130.486ZM132.02 67.9277C131.783 84.9152 131.546 101.968 131.309 118.989C139.232 119.779 144.94 115.704 147.869 110.285C153.316 100.217 154.374 89.6528 151.609 78.6051C149.36 69.6147 139.319 65.7941 132.021 67.9277H132.02ZM31.4442 70.0657C29.924 70.2844 28.657 70.1894 27.6614 70.6645C25.169 71.8543 22.7714 73.2537 20.3881 74.6563C13.8941 78.4749 11.2699 84.5071 11.1666 91.7225C11.1053 95.9447 11.359 100.166 11.9258 104.35C12.2933 107.041 12.92 110.023 14.4299 112.17C18.625 118.137 25.1898 118.763 31.4442 119.078V70.0657Z" fill="black"/>
</g>
<defs>
<clipPath id="clip0">
<rect width="163" height="151" fill="white" transform="translate(0.777344)"/>
</clipPath>
</defs>
</svg>

<svg xmlns="http://www.w3.org/2000/svg" width="164" height="151" fill="none" viewBox="0 0 164 151"><g clip-path="url(#a)"><path fill="#000" d="M129.93 130.486c-.31 1.277-.599 2.337-.823 3.41-1.442 6.92-5.548 11.286-12.469 12.753a36 36 0 0 1-7.906.912c-8.767-.137-17.525-.506-26.88-.805-4.926 4.72-11.639 3.767-18.144 3.368a10.3 10.3 0 0 1-7.547-3.824 9.38 9.38 0 0 1-1.755-8.197 9.37 9.37 0 0 1 5.49-6.325c6.075-2.443 12.38-2.257 18.664-.743a3.75 3.75 0 0 1 2.014 1.099c1.51 1.966 3.551 1.962 5.709 1.953 7.558-.029 15.116.021 22.674.016a22 22 0 0 0 3.653-.222c4.144-.707 5.308-2.171 5.728-6.433 2.308-23.431 1.032-46.927 1.123-70.39.019-4.75-.752-9.52-1.334-14.26-.87-7.08-4.281-13.022-8.577-18.549-6.083-7.82-13.875-12.948-23.78-13.892-12.802-1.22-24.814.947-34.6 10.283a19.97 19.97 0 0 0-5.93 11.716c-.98 6.47-1.538 13.008-2.184 19.526-.669 6.742-1.416 13.485-1.78 20.246-.351 6.535-.221 13.095-.373 19.643-.076 3.219-.423 6.433-.438 9.651-.012 2.659.477 5.325.4 7.979-.133 4.657-.3 9.338-.89 13.951-.471 3.689-2.176 5.326-5.68 5.476-7.615.325-15.1-.364-21.826-4.534-5.952-3.69-9.322-9.026-10.348-15.946-1.214-8.194-1.738-16.362.641-24.444 1.753-5.958 5.04-10.925 10.246-14.368a57.5 57.5 0 0 1 9.589-5.312c2.808-1.162 5.955-1.5 9.315-2.29.263-2.244.603-4.856.873-7.476.695-6.737 1.273-13.487 2.053-20.215 1.546-13.323 8.844-22.53 20.682-28.281A57.4 57.4 0 0 1 85.332.442a43.88 43.88 0 0 1 26.535 11.287c10.539 9.463 17.309 21.074 18.63 35.472.253 2.763.403 5.536.671 8.298.112 1.161.406 2.305.658 3.679a24.7 24.7 0 0 1 13.103.808c8.322 2.7 13.853 8.26 16.406 16.62 1.959 6.42 2.961 12.92 1.941 19.734-1.155 7.705-3.136 15.035-7.554 21.511-5.447 7.99-13.039 12.179-22.729 12.464-.876.027-1.751.097-3.063.171m2.09-62.558-.711 51.061c7.923.79 13.631-3.285 16.56-8.704 5.447-10.068 6.505-20.632 3.74-31.68-2.249-8.99-12.29-12.81-19.588-10.677zM31.444 70.066c-1.52.218-2.787.123-3.783.599-2.492 1.19-4.89 2.589-7.273 3.991-6.494 3.819-9.118 9.851-9.221 17.066a85 85 0 0 0 .759 12.628c.367 2.691.994 5.673 2.504 7.82 4.195 5.967 10.76 6.593 17.014 6.908z"/></g><defs><clipPath id="a"><path fill="#fff" d="M.777 0h163v151h-163z"/></clipPath></defs></svg>
